public/stickers/nasa.svg

<svg width="538" height="450" fill="none" xmlns="http://www.w3.org/2000/svg"><g filter="url(#a)"><path d="M244.321 416.674c108.425 0 196.321-87.903 196.321-196.337C440.642 111.903 352.746 24 244.321 24S48 111.903 48 220.337c0 108.434 87.896 196.337 196.321 196.337Z" fill="#0B3D91"/><path d="M233.194 63.685a2.201 2.201 0 1 0 0-4.403 2.201 2.201 0 0 0 0 4.403ZM255.79 66.62a2.201 2.201 0 1 0 0-4.403 2.201 2.201 0 0 0 0 4.402ZM285.428 106.533a2.201 2.201 0 1 0 0-4.402 2.201 2.201 0 0 0 0 4.402ZM122.855 311.967a2.201 2.201 0 1 0 0-4.402 2.201 2.201 0 0 0 0 4.402ZM128.577 329.576a2.2 2.2 0 1 0 .001-4.4 2.2 2.2 0 0 0-.001 4.4ZM101.286 314.056a1.648 1.648 0 1 0 0-3.296 1.648 1.648 0 0 0 0 3.296ZM190.79 348.652a1.653 1.653 0 1 0 0-3.306 1.653 1.653 0 0 0 0 3.306ZM331.168 319.485a1.648 1.648 0 1 0 .001-3.297 1.648 1.648 0 0 0-.001 3.297ZM371.963 275.175a1.654 1.654 0 1 0 0-3.308 1.654 1.654 0 0 0 0 3.308ZM172.008 118.854a1.648 1.648 0 1 0 0-3.296 1.648 1.648 0 0 0 0 3.296ZM216.907 85.877a1.648 1.648 0 1 0 0-3.297 1.648 1.648 0 0 0 0 3.297ZM212.031 82.648a1.648 1.648 0 1 0 0-3.296 1.648 1.648 0 0 0 0 3.296ZM207.629 79.42a1.648 1.648 0 1 0 0-3.297 1.648 1.648 0 0 0 0 3.297ZM179.051 127.369a1.648 1.648 0 1 0 0-3.296 1.648 1.648 0 0 0 0 3.296ZM245.186 41.561a1.648 1.648 0 1 0 0-3.296 1.648 1.648 0 0 0 0 3.296ZM256.049 89.105a1.648 1.648 0 1 0 0-3.297 1.648 1.648 0 0 0 0 3.297ZM238.916 79.821a1.648 1.648 0 1 0 0-3.296 1.648 1.648 0 0 0 0 3.296ZM209.571 92.446a1.648 1.648 0 1 0 0-3.297 1.648 1.648 0 0 0 0 3.297ZM338.984 363.033a1.648 1.648 0 1 0 0-3.297 1.648 1.648 0 0 0 0 3.297ZM120.067 322.572a1.654 1.654 0 1 0-.002-3.308 1.654 1.654 0 0 0 .002 3.308ZM234.808 343.849a1.653 1.653 0 1 0 0-3.306 1.653 1.653 0 0 0 0 3.306ZM154.215 321.251a1.653 1.653 0 1 0 0-3.306 1.653 1.653 0 0 0 0 3.306ZM168.487 344.548a1.653 1.653 0 1 0 0-3.306 1.653 1.653 0 0 0 0 3.306ZM273.543 329.87a1.65 1.65 0 1 0 0-3.299 1.65 1.65 0 0 0 0 3.299ZM331.462 297.181a1.648 1.648 0 1 0 0-3.296 1.648 1.648 0 0 0 0 3.296ZM375.372 317.245a1.648 1.648 0 1 0 .001-3.297 1.648 1.648 0 0 0-.001 3.297ZM390.339 326.822a1.648 1.648 0 1 0 0-3.296 1.648 1.648 0 0 0 0 3.296ZM392.799 300.703a1.648 1.648 0 1 0 0-3.297 1.648 1.648 0 0 0 0 3.297ZM174.464 263.724a1.648 1.648 0 1 0 0-3.296 1.648 1.648 0 0 0 0 3.296ZM175.09 302.136a2.202 2.202 0 1 0-.001-4.403 2.202 2.202 0 0 0 .001 4.403ZM188.295 330.016a2.2 2.2 0 1 0 .001-4.4 2.2 2.2 0 0 0-.001 4.4ZM346.467 300.962a2.2 2.2 0 1 0 .001-4.4 2.2 2.2 0 0 0-.001 4.4ZM403.397 297.734a2.201 2.201 0 1 0 0-4.403 2.201 2.201 0 0 0 0 4.403ZM375.226 285.701a2.2 2.2 0 1 0 0-4.4 2.2 2.2 0 0 0 0 4.4ZM346.467 286.875a2.2 2.2 0 1 0 .001-4.4 2.2 2.2 0 0 0-.001 4.4ZM287.145 60.104l5.473-.523-5.463-.308a2.428 2.428 0 0 0-2.084-2.02l-.523-5.45-.313 5.494a2.416 2.416 0 0 0-1.868 2.074l-5.596.508 5.635.304a2.422 2.422 0 0 0 1.927 1.858l.508 5.615.299-5.605a2.453 2.453 0 0 0 2.005-1.947ZM194.776 121.04l5.473-.523-5.464-.308a2.422 2.422 0 0 0-2.083-2.02l-.523-5.449-.309 5.493a2.415 2.415 0 0 0-1.873 2.074l-5.595.508 5.634.303a2.424 2.424 0 0 0 1.927 1.859l.509 5.615.303-5.605a2.435 2.435 0 0 0 2.001-1.947ZM399.387 282.15l5.473-.523-5.463-.309a2.425 2.425 0 0 0-2.084-2.02l-.523-5.449-.308 5.493a2.418 2.418 0 0 0-1.869 2.074l-5.595.509 5.634.303a2.425 2.425 0 0 0 1.927 1.859l.509 5.615.303-5.605a2.442 2.442 0 0 0 1.996-1.947ZM176.288 366.388l5.473-.523-5.463-.308a2.43 2.43 0 0 0-2.084-2.021l-.523-5.444-.308 5.489a2.416 2.416 0 0 0-1.874 2.073l-5.595.509 5.635.303a2.416 2.416 0 0 0 1.927 1.859l.508 5.615.303-5.605a2.44 2.44 0 0 0 2.001-1.947ZM382 325.301l5.473-.523-5.464-.308a2.42 2.42 0 0 0-2.083-2.02l-.524-5.449-.308 5.488a2.415 2.415 0 0 0-1.868 2.074l-5.595.508 5.634.304a2.424 2.424 0 0 0 1.927 1.858l.509 5.615.303-5.605a2.43 2.43 0 0 0 1.996-1.942Z" fill="#fff"/><path d="M291.342 173.079c-22.826 8.873-45.09 16.792-63.876 22.671-38.173 11.954-142.619 44.315-205.711 85.109l5.282 2.054c38.442-21.717 63.43-28.541 87.449-36.098 26.118-8.217 110.55-27.978 148.782-38.739 12.917-3.634 28.044-8.393 44.067-14.185a393.737 393.737 0 0 0-11.797-15.618 300.471 300.471 0 0 0-4.196-5.194Zm27.888 38.441c-5.527 3.732-10.159 6.71-13.401 8.589-18.782 10.858-110.344 73.369-131.175 87.75-20.83 14.38-78.645 68.967-95.666 84.815l-.587 6.451c54.876-49.304 72.092-61.464 93.906-78.06 26.998-20.543 82.847-58.549 101.828-70.728 18.146-11.641 34.511-22.348 49.198-32.146-.24-.401-.479-.802-.719-1.208a458.34 458.34 0 0 0-3.384-5.463Zm85.781-90.607c-26.733 15.672-68.869 34.586-109.747 50.635a355.05 355.05 0 0 1 2.92 3.624 356.527 356.527 0 0 1 12.932 17.34c32.133-11.837 67.391-27.724 95.367-46.952-13.327 12.63-57.389 45.563-84.255 63.92a292.126 292.126 0 0 1 4.02 6.755c40.702-27.24 68.091-47.289 84.05-60.696 22.009-18.49 72.19-59.87 91.265-115.337-33.459 42.559-73.017 66.913-96.552 80.711Z" fill="#FC3D21"/><path d="M224.043 92 167 101.62V352h57.043v-94.725c0-27.875 14.881-45.142 27.281-45.142 11.161 0 14.385 11.1 14.385 27.875V352H323V231.867c0-37.988-14.385-62.41-51.835-62.41-17.609 0-34.721 4.934-47.122 16.034V92Z" fill="#fff"/><path d="M319.23 211.52c-5.527 3.732-10.159 6.71-13.401 8.589-18.782 10.858-110.344 73.369-131.175 87.75-20.83 14.38-78.645 68.967-95.666 84.815l-.587 6.451c54.876-49.304 72.092-61.464 93.906-78.06 26.998-20.543 82.847-58.549 101.828-70.728 18.146-11.641 34.511-22.348 49.198-32.146-.24-.401-.479-.802-.719-1.208a458.34 458.34 0 0 0-3.384-5.463ZM322.228 209.48c26.866-18.357 70.928-51.29 84.255-63.92l3.815 9.979c-15.959 13.407-43.348 33.456-84.05 60.696a292.126 292.126 0 0 0-4.02-6.755Z" fill="#FC3D21"/><path d="M219.523 268.723c-4.328-5.449-10.315-12.746-14.809-18.406a341.95 341.95 0 0 1-16.668-22.847l-4.979 1.247a347.128 347.128 0 0 0 20.429 28.561c5.439 6.848 10.383 12.36 12.917 15.789.513.694 1.531 2.23 2.905 4.275l4.798-3.258a97.71 97.71 0 0 1-4.593-5.361Zm31.596 28.683c-3.556-3.365-12.179-8.985-21.154-17.418-1.98 1.36-3.981 2.739-5.986 4.128 5.796 8.169 13.69 18.201 19.872 21.126 9.312 4.412 11.821-3.522 7.268-7.836Zm47.065-122.234c-51.316-64.594-114.002-100.08-141.029-78.603-20.992 16.679-12.374 65.426 16.56 116.633 1.497-.513 2.979-1.017 4.446-1.516-29.204-49.891-37.195-96.256-17.397-111.991 24.88-19.771 84.955 15.852 134.784 78.574 10.315 12.981 19.382 26.011 27.061 38.714 29.404 48.669 38.428 92.681 18.111 110.646-6.216 5.498-25.213 7.655-50.097-3.546-.348.436.21 1.614.645 1.903 21.481 8.638 42.057 11.93 52.445 3.678 24.964-19.839 5.786-89.897-45.529-154.492Z" fill="#fff"/></g><defs><filter id="a" x="-4" y="0" width="546" height="458" filterUnits="userSpaceOnUse" color-interpolation-filters="sRGB"><feFlood flood-opacity="0" result="BackgroundImageFix"/><feColorMatrix in="SourceAlpha" values="0 0 0 0 0 0 0 0 0 0 0 0 0 0 0 0 0 0 127 0"/><feOffset dy="4"/><feGaussianBlur stdDeviation="2"/><feColorMatrix values="0 0 0 0 0 0 0 0 0 0 0 0 0 0 0 0 0 0 0.25 0"/><feBlend in2="BackgroundImageFix" result="effect1_dropShadow"/><feBlend in="SourceGraphic" in2="effect1_dropShadow" result="shape"/></filter></defs></svg>

<svg width="538" height="450" viewBox="0 0 538 450" fill="none" xmlns="http://www.w3.org/2000/svg">
<g filter="url(#filter0_d)">
<path d="M244.321 416.674C352.746 416.674 440.642 328.771 440.642 220.337C440.642 111.903 352.746 24 244.321 24C135.896 24 48 111.903 48 220.337C48 328.771 135.896 416.674 244.321 416.674Z" fill="#0B3D91"/>
<path d="M233.194 63.6847C234.409 63.6847 235.395 62.6993 235.395 61.4836C235.395 60.268 234.409 59.2826 233.194 59.2826C231.978 59.2826 230.993 60.268 230.993 61.4836C230.993 62.6993 231.978 63.6847 233.194 63.6847Z" fill="white"/>
<path d="M255.79 66.6194C257.005 66.6194 257.991 65.634 257.991 64.4183C257.991 63.2027 257.005 62.2173 255.79 62.2173C254.574 62.2173 253.589 63.2027 253.589 64.4183C253.589 65.634 254.574 66.6194 255.79 66.6194Z" fill="white"/>
<path d="M285.428 106.533C286.644 106.533 287.629 105.547 287.629 104.332C287.629 103.116 286.644 102.13 285.428 102.13C284.213 102.13 283.228 103.116 283.228 104.332C283.228 105.547 284.213 106.533 285.428 106.533Z" fill="white"/>
<path d="M122.855 311.967C124.07 311.967 125.056 310.982 125.056 309.766C125.056 308.551 124.07 307.565 122.855 307.565C121.639 307.565 120.654 308.551 120.654 309.766C120.654 310.982 121.639 311.967 122.855 311.967Z" fill="white"/>
<path d="M128.577 329.576C129.793 329.576 130.778 328.591 130.778 327.375C130.778 326.159 129.793 325.174 128.577 325.174C127.362 325.174 126.376 326.159 126.376 327.375C126.376 328.591 127.362 329.576 128.577 329.576Z" fill="white"/>
<path d="M101.286 314.056C102.196 314.056 102.934 313.318 102.934 312.408C102.934 311.497 102.196 310.759 101.286 310.759C100.376 310.759 99.6377 311.497 99.6377 312.408C99.6377 313.318 100.376 314.056 101.286 314.056Z" fill="white"/>
<path d="M190.79 348.652C191.703 348.652 192.443 347.912 192.443 346.999C192.443 346.086 191.703 345.346 190.79 345.346C189.877 345.346 189.136 346.086 189.136 346.999C189.136 347.912 189.877 348.652 190.79 348.652Z" fill="white"/>
<path d="M331.168 319.485C332.079 319.485 332.817 318.747 332.817 317.837C332.817 316.927 332.079 316.189 331.168 316.189C330.258 316.189 329.52 316.927 329.52 317.837C329.52 318.747 330.258 319.485 331.168 319.485Z" fill="white"/>
<path d="M371.963 275.175C372.876 275.175 373.617 274.435 373.617 273.522C373.617 272.609 372.876 271.869 371.963 271.869C371.05 271.869 370.31 272.609 370.31 273.522C370.31 274.435 371.05 275.175 371.963 275.175Z" fill="white"/>
<path d="M172.008 118.854C172.919 118.854 173.656 118.116 173.656 117.205C173.656 116.295 172.919 115.557 172.008 115.557C171.098 115.557 170.36 116.295 170.36 117.205C170.36 118.116 171.098 118.854 172.008 118.854Z" fill="white"/>
<path d="M216.907 85.8766C217.817 85.8766 218.555 85.1386 218.555 84.2282C218.555 83.3179 217.817 82.5799 216.907 82.5799C215.997 82.5799 215.259 83.3179 215.259 84.2282C215.259 85.1386 215.997 85.8766 216.907 85.8766Z" fill="white"/>
<path d="M212.031 82.6484C212.941 82.6484 213.679 81.9104 213.679 81.0001C213.679 80.0897 212.941 79.3517 212.031 79.3517C211.121 79.3517 210.383 80.0897 210.383 81.0001C210.383 81.9104 211.121 82.6484 212.031 82.6484Z" fill="white"/>
<path d="M207.629 79.42C208.539 79.42 209.277 78.682 209.277 77.7717C209.277 76.8613 208.539 76.1233 207.629 76.1233C206.719 76.1233 205.981 76.8613 205.981 77.7717C205.981 78.682 206.719 79.42 207.629 79.42Z" fill="white"/>
<path d="M179.051 127.369C179.961 127.369 180.699 126.631 180.699 125.721C180.699 124.811 179.961 124.073 179.051 124.073C178.141 124.073 177.403 124.811 177.403 125.721C177.403 126.631 178.141 127.369 179.051 127.369Z" fill="white"/>
<path d="M245.186 41.5614C246.096 41.5614 246.834 40.8234 246.834 39.913C246.834 39.0026 246.096 38.2646 245.186 38.2646C244.276 38.2646 243.538 39.0026 243.538 39.913C243.538 40.8234 244.276 41.5614 245.186 41.5614Z" fill="white"/>
<path d="M256.049 89.1048C256.959 89.1048 257.697 88.3668 257.697 87.4564C257.697 86.546 256.959 85.808 256.049 85.808C255.139 85.808 254.401 86.546 254.401 87.4564C254.401 88.3668 255.139 89.1048 256.049 89.1048Z" fill="white"/>
<path d="M238.916 79.8213C239.826 79.8213 240.564 79.0833 240.564 78.1729C240.564 77.2625 239.826 76.5245 238.916 76.5245C238.006 76.5245 237.268 77.2625 237.268 78.1729C237.268 79.0833 238.006 79.8213 238.916 79.8213Z" fill="white"/>
<path d="M209.571 92.4457C210.481 92.4457 211.219 91.7077 211.219 90.7973C211.219 89.887 210.481 89.149 209.571 89.149C208.66 89.149 207.922 89.887 207.922 90.7973C207.922 91.7077 208.66 92.4457 209.571 92.4457Z" fill="white"/>
<path d="M338.984 363.033C339.894 363.033 340.632 362.295 340.632 361.384C340.632 360.474 339.894 359.736 338.984 359.736C338.074 359.736 337.336 360.474 337.336 361.384C337.336 362.295 338.074 363.033 338.984 363.033Z" fill="white"/>
<path d="M120.067 322.572C120.98 322.572 121.72 321.831 121.72 320.918C121.72 320.005 120.98 319.265 120.067 319.265C119.154 319.265 118.414 320.005 118.414 320.918C118.414 321.831 119.154 322.572 120.067 322.572Z" fill="white"/>
<path d="M234.808 343.849C235.721 343.849 236.461 343.109 236.461 342.196C236.461 341.283 235.721 340.542 234.808 340.542C233.895 340.542 233.155 341.283 233.155 342.196C233.155 343.109 233.895 343.849 234.808 343.849Z" fill="white"/>
<path d="M154.215 321.251C155.128 321.251 155.868 320.511 155.868 319.598C155.868 318.685 155.128 317.945 154.215 317.945C153.302 317.945 152.562 318.685 152.562 319.598C152.562 320.511 153.302 321.251 154.215 321.251Z" fill="white"/>
<path d="M168.487 344.548C169.4 344.548 170.14 343.808 170.14 342.895C170.14 341.982 169.4 341.242 168.487 341.242C167.574 341.242 166.834 341.982 166.834 342.895C166.834 343.808 167.574 344.548 168.487 344.548Z" fill="white"/>
<path d="M273.543 329.87C274.454 329.87 275.192 329.131 275.192 328.221C275.192 327.311 274.454 326.573 273.543 326.573C272.633 326.573 271.895 327.311 271.895 328.221C271.895 329.131 272.633 329.87 273.543 329.87Z" fill="white"/>
<path d="M331.462 297.181C332.372 297.181 333.11 296.443 333.11 295.533C333.11 294.622 332.372 293.884 331.462 293.884C330.552 293.884 329.814 294.622 329.814 295.533C329.814 296.443 330.552 297.181 331.462 297.181Z" fill="white"/>
<path d="M375.372 317.245C376.283 317.245 377.021 316.507 377.021 315.597C377.021 314.686 376.283 313.948 375.372 313.948C374.462 313.948 373.724 314.686 373.724 315.597C373.724 316.507 374.462 317.245 375.372 317.245Z" fill="white"/>
<path d="M390.339 326.822C391.249 326.822 391.987 326.084 391.987 325.174C391.987 324.264 391.249 323.526 390.339 323.526C389.428 323.526 388.69 324.264 388.69 325.174C388.69 326.084 389.428 326.822 390.339 326.822Z" fill="white"/>
<path d="M392.799 300.703C393.709 300.703 394.447 299.965 394.447 299.054C394.447 298.144 393.709 297.406 392.799 297.406C391.888 297.406 391.15 298.144 391.15 299.054C391.15 299.965 391.888 300.703 392.799 300.703Z" fill="white"/>
<path d="M174.464 263.724C175.374 263.724 176.112 262.986 176.112 262.076C176.112 261.166 175.374 260.428 174.464 260.428C173.553 260.428 172.815 261.166 172.815 262.076C172.815 262.986 173.553 263.724 174.464 263.724Z" fill="white"/>
<path d="M175.09 302.136C176.305 302.136 177.291 301.15 177.291 299.935C177.291 298.719 176.305 297.734 175.09 297.734C173.874 297.734 172.889 298.719 172.889 299.935C172.889 301.15 173.874 302.136 175.09 302.136Z" fill="white"/>
<path d="M188.295 330.016C189.511 330.016 190.496 329.031 190.496 327.815C190.496 326.6 189.511 325.614 188.295 325.614C187.08 325.614 186.094 326.6 186.094 327.815C186.094 329.031 187.08 330.016 188.295 330.016Z" fill="white"/>
<path d="M346.467 300.962C347.683 300.962 348.668 299.977 348.668 298.761C348.668 297.545 347.683 296.56 346.467 296.56C345.251 296.56 344.266 297.545 344.266 298.761C344.266 299.977 345.251 300.962 346.467 300.962Z" fill="white"/>
<path d="M403.397 297.734C404.613 297.734 405.598 296.748 405.598 295.532C405.598 294.317 404.613 293.331 403.397 293.331C402.182 293.331 401.196 294.317 401.196 295.532C401.196 296.748 402.182 297.734 403.397 297.734Z" fill="white"/>
<path d="M375.226 285.701C376.441 285.701 377.426 284.716 377.426 283.5C377.426 282.284 376.441 281.299 375.226 281.299C374.01 281.299 373.025 282.284 373.025 283.5C373.025 284.716 374.01 285.701 375.226 285.701Z" fill="white"/>
<path d="M346.467 286.875C347.683 286.875 348.668 285.89 348.668 284.674C348.668 283.458 347.683 282.473 346.467 282.473C345.251 282.473 344.266 283.458 344.266 284.674C344.266 285.89 345.251 286.875 346.467 286.875Z" fill="white"/>
<path d="M287.145 60.1044L292.618 59.581L287.155 59.2728C286.984 58.2163 286.138 57.3897 285.071 57.2527L284.548 51.8038L284.235 57.2967C283.247 57.5168 282.489 58.3435 282.367 59.3707L276.771 59.8794L282.406 60.1826C282.611 61.1266 283.374 61.8652 284.333 62.0413L284.841 67.6565L285.14 62.0511C286.152 61.8799 286.954 61.1022 287.145 60.1044Z" fill="white"/>
<path d="M194.776 121.04L200.249 120.517L194.785 120.209C194.619 119.152 193.768 118.326 192.702 118.189L192.179 112.74L191.87 118.233C190.878 118.453 190.119 119.279 189.997 120.307L184.402 120.815L190.036 121.118C190.242 122.063 191.005 122.801 191.963 122.977L192.472 128.592L192.775 122.987C193.788 122.821 194.59 122.038 194.776 121.04Z" fill="white"/>
<path d="M399.387 282.15L404.86 281.627L399.397 281.318C399.23 280.262 398.379 279.435 397.313 279.298L396.79 273.849L396.482 279.342C395.494 279.562 394.736 280.389 394.613 281.416L389.018 281.925L394.652 282.228C394.858 283.172 395.621 283.911 396.579 284.087L397.088 289.702L397.391 284.097C398.394 283.93 399.196 283.153 399.387 282.15Z" fill="white"/>
<path d="M176.288 366.388L181.761 365.865L176.298 365.557C176.126 364.5 175.28 363.673 174.214 363.536L173.691 358.092L173.383 363.581C172.39 363.801 171.632 364.627 171.509 365.654L165.914 366.163L171.549 366.466C171.754 367.41 172.517 368.154 173.476 368.325L173.984 373.94L174.287 368.335C175.295 368.169 176.102 367.386 176.288 366.388Z" fill="white"/>
<path d="M382 325.301L387.473 324.778L382.009 324.47C381.843 323.413 380.992 322.586 379.926 322.45L379.402 317.001L379.094 322.489C378.106 322.709 377.348 323.535 377.226 324.563L371.631 325.071L377.265 325.375C377.471 326.319 378.234 327.057 379.192 327.233L379.701 332.848L380.004 327.243C381.007 327.082 381.814 326.299 382 325.301Z" fill="white"/>
<path d="M291.342 173.079C268.516 181.952 246.252 189.871 227.466 195.75C189.293 207.704 84.8475 240.065 21.7548 280.859L27.0369 282.913C65.4795 261.196 90.4671 254.372 114.486 246.815C140.604 238.598 225.036 218.837 263.268 208.076C276.185 204.442 291.312 199.683 307.335 193.891C303.608 188.692 299.676 183.478 295.538 178.273C294.154 176.517 292.75 174.786 291.342 173.079ZM319.23 211.52C313.703 215.252 309.071 218.23 305.829 220.109C287.047 230.967 195.485 293.478 174.654 307.859C153.824 322.239 96.0085 376.826 78.9882 392.674L78.4013 399.125C133.277 349.821 150.493 337.661 172.307 321.065C199.305 300.522 255.154 262.516 274.135 250.337C292.281 238.696 308.646 227.989 323.333 218.191C323.093 217.79 322.854 217.389 322.614 216.983C321.509 215.168 320.379 213.349 319.23 211.52ZM405.011 120.913C378.278 136.585 336.142 155.499 295.264 171.548C296.242 172.746 297.216 173.954 298.184 175.172C302.752 180.924 307.061 186.716 311.116 192.512C343.249 180.675 378.507 164.788 406.483 145.56C393.156 158.19 349.094 191.123 322.228 209.48C323.612 211.735 324.952 213.99 326.248 216.235C366.95 188.995 394.339 168.946 410.298 155.539C432.307 137.049 482.488 95.669 501.563 40.2016C468.104 82.7608 428.546 107.115 405.011 120.913Z" fill="#FC3D21"/>
<path d="M224.043 92L167 101.62V352H224.043V257.275C224.043 229.4 238.924 212.133 251.324 212.133C262.485 212.133 265.709 223.233 265.709 240.008V352H323V231.867C323 193.879 308.615 169.457 271.165 169.457C253.556 169.457 236.444 174.391 224.043 185.491V92Z" fill="white"/>
<path d="M319.23 211.52C313.703 215.252 309.071 218.23 305.829 220.109C287.047 230.967 195.485 293.478 174.654 307.859C153.824 322.239 96.0085 376.826 78.9881 392.674L78.4012 399.125C133.277 349.821 150.493 337.661 172.307 321.065C199.305 300.522 255.154 262.516 274.135 250.337C292.281 238.696 308.646 227.989 323.333 218.191C323.093 217.79 322.854 217.389 322.614 216.983C321.509 215.168 320.379 213.349 319.23 211.52Z" fill="#FC3D21"/>
<path d="M322.228 209.48C349.094 191.123 393.156 158.19 406.483 145.56L410.298 155.539C394.339 168.946 366.95 188.995 326.248 216.235C324.952 213.99 323.612 211.735 322.228 209.48Z" fill="#FC3D21"/>
<path d="M219.523 268.723C215.195 263.274 209.208 255.977 204.714 250.317C198.703 242.751 193.142 235.105 188.046 227.47C186.383 227.886 184.725 228.302 183.067 228.717C189.219 238.319 196.052 247.906 203.496 257.278C208.935 264.126 213.879 269.638 216.413 273.067C216.926 273.761 217.944 275.297 219.318 277.342C220.903 276.266 222.502 275.18 224.116 274.084C222.556 272.387 221.015 270.602 219.523 268.723ZM251.119 297.406C247.563 294.041 238.94 288.421 229.965 279.988C227.985 281.348 225.984 282.727 223.979 284.116C229.775 292.285 237.669 302.317 243.851 305.242C253.163 309.654 255.672 301.72 251.119 297.406ZM298.184 175.172C246.868 110.578 184.182 75.0914 157.155 96.5691C136.163 113.248 144.781 161.995 173.715 213.202C175.212 212.689 176.694 212.185 178.161 211.686C148.957 161.795 140.966 115.43 160.764 99.6946C185.644 79.924 245.719 115.547 295.548 178.269C305.863 191.25 314.93 204.28 322.609 216.983C352.013 265.652 361.037 309.664 340.72 327.629C334.504 333.127 315.507 335.284 290.623 324.083C290.275 324.519 290.833 325.697 291.268 325.986C312.749 334.624 333.325 337.916 343.713 329.664C368.677 309.825 349.499 239.767 298.184 175.172Z" fill="white"/>
</g>
<defs>
<filter id="filter0_d" x="-4" y="0" width="546" height="458" filterUnits="userSpaceOnUse" color-interpolation-filters="sRGB">
<feFlood flood-opacity="0" result="BackgroundImageFix"/>
<feColorMatrix in="SourceAlpha" type="matrix" values="0 0 0 0 0 0 0 0 0 0 0 0 0 0 0 0 0 0 127 0"/>
<feOffset dy="4"/>
<feGaussianBlur stdDeviation="2"/>
<feColorMatrix type="matrix" values="0 0 0 0 0 0 0 0 0 0 0 0 0 0 0 0 0 0 0.25 0"/>
<feBlend mode="normal" in2="BackgroundImageFix" result="effect1_dropShadow"/>
<feBlend mode="normal" in="SourceGraphic" in2="effect1_dropShadow" result="shape"/>
</filter>
</defs>
</svg>
